assets/twitter.svg

<?xml version="1.0" encoding="UTF-8"?>
<!DOCTYPE svg  PUBLIC '-//W3C//DTD SVG 1.1//EN'  'http://www.w3.org/Graphics/SVG/1.1/DTD/svg11.dtd'>
<svg clip-rule="evenodd" fill-rule="evenodd" stroke-linejoin="round" stroke-miterlimit="2" version="1.1" viewBox="0 0 57 57" xml:space="preserve" xmlns="http://www.w3.org/2000/svg">
    <g transform="matrix(1.1512 0 0 1.1512 -4.2858 -5.9366)">
        <path d="m28.348 5.157c-13.6 0-24.625 11.027-24.625 24.625 0 13.6 11.025 24.623 24.625 24.623s24.623-11.023 24.623-24.623c0-13.598-11.024-24.625-24.623-24.625zm12.404 19.66c0.013 0.266 0.018 0.533 0.018 0.803 0 8.201-6.242 17.656-17.656 17.656-3.504 0-6.767-1.027-9.513-2.787 0.486 0.057 0.979 0.086 1.48 0.086 2.908 0 5.584-0.992 7.707-2.656-2.715-0.051-5.006-1.846-5.796-4.311 0.378 0.074 0.767 0.111 1.167 0.111 0.566 0 1.114-0.074 1.635-0.217-2.84-0.57-4.979-3.08-4.979-6.084 0-0.027 0-0.053 1e-3 -0.08 0.836 0.465 1.793 0.744 2.811 0.777-1.666-1.115-2.761-3.012-2.761-5.166 0-1.137 0.306-2.204 0.84-3.12 3.061 3.754 7.634 6.225 12.792 6.483-0.106-0.453-0.161-0.928-0.161-1.414 0-3.426 2.778-6.205 6.206-6.205 1.785 0 3.397 0.754 4.529 1.959 1.414-0.277 2.742-0.795 3.941-1.506-0.465 1.45-1.448 2.666-2.73 3.433 1.257-0.15 2.453-0.484 3.565-0.977-0.83 1.247-1.883 2.34-3.096 3.215z" fill-rule="nonzero"/>
    </g>
</svg>

<?xml version="1.0" encoding="UTF-8" standalone="no"?>
<!DOCTYPE svg PUBLIC "-//W3C//DTD SVG 1.1//EN" "http://www.w3.org/Graphics/SVG/1.1/DTD/svg11.dtd">
<svg width="100%" height="100%" viewBox="0 0 57 57" version="1.1" xmlns="http://www.w3.org/2000/svg" xmlns:xlink="http://www.w3.org/1999/xlink" xml:space="preserve" xmlns:serif="http://www.serif.com/" style="fill-rule:evenodd;clip-rule:evenodd;stroke-linejoin:round;stroke-miterlimit:2;">
    <g transform="matrix(1.15117,0,0,1.15117,-4.28582,-5.9366)">
        <path d="M28.348,5.157C14.748,5.157 3.723,16.184 3.723,29.782C3.723,43.382 14.748,54.405 28.348,54.405C41.948,54.405 52.971,43.382 52.971,29.782C52.971,16.184 41.947,5.157 28.348,5.157ZM40.752,24.817C40.765,25.083 40.77,25.35 40.77,25.62C40.77,33.821 34.528,43.276 23.114,43.276C19.61,43.276 16.347,42.249 13.601,40.489C14.087,40.546 14.58,40.575 15.081,40.575C17.989,40.575 20.665,39.583 22.788,37.919C20.073,37.868 17.782,36.073 16.992,33.608C17.37,33.682 17.759,33.719 18.159,33.719C18.725,33.719 19.273,33.645 19.794,33.502C16.954,32.932 14.815,30.422 14.815,27.418C14.815,27.391 14.815,27.365 14.816,27.338C15.652,27.803 16.609,28.082 17.627,28.115C15.961,27 14.866,25.103 14.866,22.949C14.866,21.812 15.172,20.745 15.706,19.829C18.767,23.583 23.34,26.054 28.498,26.312C28.392,25.859 28.337,25.384 28.337,24.898C28.337,21.472 31.115,18.693 34.543,18.693C36.328,18.693 37.94,19.447 39.072,20.652C40.486,20.375 41.814,19.857 43.013,19.146C42.548,20.596 41.565,21.812 40.283,22.579C41.54,22.429 42.736,22.095 43.848,21.602C43.018,22.849 41.965,23.942 40.752,24.817Z" style="fill-rule:nonzero;"/>
    </g>
</svg>
